X: 43427
T: Y Glwysen
R: waltz
M: 3/4
K: Cmajor
E2|A2AB cA|B2^G2E2|A2AB cd|e3d cB|
A2AB cA|B2^G2E2|AF Ec B^G|A4:|
B2|c2 cd ec|g4G2|A2AB cd|e4e2|
a^g a=g fe|fe fe dc|dc dc BA|^GB AG E2|
A2AB cA|B2^G2E2|A2AB cd|e3d cB|
A2AB cA|B2^G2E2|AF Ec B^G|A4|

